X:1
T:Title
%%score { ( 1 3 ) | 2 }
L:1/8
Q:1/4=100
M:4/4
K:Eb
V:1 treble nm="Grand Piano"
V:3 treble 
V:2 bass 
V:1
 B>B =AB cB_AG |[M:3/4] G3 G AG |[M:1/4] FE |[M:4/4] [DF]>[DF] [DF][DF] [DG][DF]ED | E2 [DF]2 G4 | %5
w: Chas.~Edw.~Prior * * * * * * *|||||
 B>B =AB cB_AG | G3 G AGFE | [CF]>[CG] [CA][Cc] [DB]2 D>D | E6 z2 | B3 G AGFE | %10
w: |||||
 [DB]4[K:bass][K:treble] [DA]4 | [DF]>[EG] [FA][GB] [Bd]2 [B,Ac]2 | %12
w: ||
 [B,GB]>[B,FA] [B,EG][B,FA] [B,GB]4 | B3 G AGFE | [DB]4[K:bass][K:treble] [DA]4 | %15
w: |||
 [DF]>[DG] [DA][Dc] [DB]2 D>D | E6 z2 |] %17
w: ||
V:2
 [E,G,E]>[E,G,E] [E,_G,E][E,=G,E] [E,A,E][E,G,E][E,CE][E,B,E] | %1
[M:3/4] [E,B,E]3 [E,B,E] [E,CE][E,B,E] |[M:1/4] [E,A,B,][E,G,B,] | %3
[M:4/4] [B,,A,]>[B,,A,] [B,,A,][B,,A,] [B,,B,][B,,A,][B,,G,B,][B,,F,B,] | %4
 [E,G,B,]2 [B,,B,]2 [E,B,E]4 | [E,G,E]>[E,G,E] [E,_G,E][E,=G,E] [E,A,E][E,G,E][E,CE][E,B,E] | %6
 [E,B,E]3 [E,B,E] [E,CE][E,B,E][E,A,B,][E,G,B,] | %7
 [A,,A,]>[A,,A,] [A,,F,][A,,F,] [B,,F,]2 [B,,A,B,]>[B,,A,B,] | [E,G,B,]6 z2 | %9
 [E,G,E]3 [E,B,E] [E,CE][E,B,E][E,A,B,][E,G,B,] | [B,,F,]B,,B,,B,, B,,B,,B,,B,, | %11
 [B,,B,]>[B,,B,] [B,,B,][B,,B,] [B,,B,]2 C,D, | E,>E, E,E, E,4 | %13
 [E,G,E]3 [E,B,E] [E,CE][E,B,E][E,A,B,][E,G,B,] | [B,,F,]B,,B,,B,, B,,B,,B,,B,, | %15
 [B,,B,]>[B,,B,] [B,,B,][B,,A,] [B,,F,]2 [B,,A,B,]>[B,,A,B,] | [E,G,B,]6 z2 |] %17
V:3
 x8 |[M:3/4] x6 |[M:1/4] x2 |[M:4/4] x8 | x8 | x8 | x8 | x8 | x8 | x8 | %10
 z[K:bass] F,F,F,[K:treble] B,B,B,B, | x8 | x8 | x8 | z[K:bass] F,F,F,[K:treble] B,B,B,B, | x8 | %16
 x8 |] %17

